X:126
T:Maid of [at] the Spinning Wheel, The 
B:CRE1.001 (Cailleach an Tuirne)
F:file ID: cre.1/126maid_sw
S:Sean Potts
M:6/8
Q:160
R:jig
K:G
D|GAG B2G|BcA B2G|GDG cAG|F3 AFD|
"5"GAG B2G|BcA B2c|ded cAF|G3 G2:|
c|"9"BAG AFD|D3 AFD|D3 AFD|EFG ABc|
"13"BAG AFD|D3 AFD|ded cAF|G3 G2:|
D|"17"GBd gba|gdB ecA|dBG cAG|F3 AFD|
"21"GBd gba|gdB ecA|fed cAF|G3 G2:|
A|"25"cB/A/G Afd|Bfd Afd|Bfd AFD|EFG ABc|
"29"BAG AFD|D3 AFD|ded cAF G3 G2:|

%%%

